X: 1
T: John Stenson's
R: reel
M: 4/4
L: 1/8
K: Amaj
|:"A"ABcA "E"B2cB|"A"ABcA "E"BAFB|"A"ABcA "E"B2cf|"A"eAcA "E"BAFA|
  "A"ABcA "E"B2cB|"A"ABcA "E"BAFA|"D"d2dc "Bm"dfed|1 "E"cdBc "A"A2cB:|2 "E"cdBc "A"ABcd||
|:"A"e2cd edcd|e2cA "E"BAFA|"A"e2cd edcA|"Bm"BdcA "E"BAFA|
  "A"e2cd edcd|e2cA "E"BAFA|"D"d2dc "Bm"dfed|1 "E"cdBc "A"A2cd:|2 "E"cdBc "A"A2cB||

%%newpage
%% header "Randy+Will+Noel - Spootiskerry / Catharsis		$P"

